X: 5
T: Dunmoe Gallumph
C: Dougie Adams
Z: 2008 John Chambers <jc:trillian.mit.edu> (and chords)
F: http://www.londonnasuwt.org.uk/gtmc/session_tunes/dunmoe.gif
M: 6/8
L: 1/8
K: Edor
|: "Em"E2B E2B | "D"FGA FGA | "Em"E2B E2B | "D"AGF "Em"E3 \
|  "Em"E2B E2B | "D"FGA FGA | "Em"E2B E2B | "D"AGF "Em"E3 :|
|: "Em"e2e ede | "D"f2f f2d | "Em"e2e edc | "D"d2d     d2c \
|  "C"=c2c cdc | "G"B2B B3  |  "D"A2A d2F | "Em"E3     E3 :|

%%sep 1 1 500
